!!!COM: Music21
!!!OTL: polka_Polca-Na-Carraige-Báinne
!!!OMV: polka_Polca-Na-Carraige-Báinne
**kern
*clefG2
*k[f#]
*G:
*M2/4
=1
16ddLL
16b
16a
16gJJ
=
16eLL
16g
16e
16dJJ
4ryy
=
16ddLL
16b
16a
16gJJ
4ryy
=
16aLL
16ee
16.dd
32bJJk
4ryy
=
16ddLL
16b
16a
16gJJ
4ryy
=
16eLL
16g
16d
32eL
32f#JJJ
4ryy
=
16gLL
16ee
16dd
16bJJ
4ryy
!!linebreak:original
=
16aLL
16gJ
8gJ
4ryy
=||
*M2/4
16ddLL
16b
16a
16gJJ
=
16eLL
16g
16e
16dJJ
4ryy
=
16ddLL
16b
16a
16gJJ
4ryy
=
16aLL
16ee
16.dd
32bJJk
4ryy
=
16ddLL
16b
16a
16gJJ
4ryy
=
16eLL
16g
16d
32eL
32f#JJJ
4ryy
!!linebreak:original
=
16gLL
16ee
16dd
16bJJ
4ryy
=
16aLL
16gJ
8gJ
4ryy
=||
16ggLL
16ee
16dd
16bJJ
4ryy
=
16ddLL
16b
16a
16gJJ
4ryy
=
16ggLL
16ee
16dd
16bJJ
4ryy
=
16eeLL
16b
16dd
32eeL
32ff#JJJ
4ryy
=
16ggLL
16ee
16dd
16bJJ
4ryy
=
16ddLL
16b
16a
16gJJ
4ryy
!!linebreak:original
=
16ddLL
16b
16a
16gJJ
4ryy
=
16eLL
16f#J
8gJ
4ryy
=||
16ggLL
16ee
16dd
16bJJ
4ryy
=
16ddLL
16b
16a
16gJJ
4ryy
=
16ggLL
16ee
16dd
16bJJ
4ryy
=
16eeLL
16b
16dd
32eeL
32ff#JJJ
4ryy
=
16ggLL
16ee
16dd
16bJJ
4ryy
=
16ddLL
16b
16a
16gJJ
4ryy
!!linebreak:original
=
16ddLL
16b
16a
16gJJ
4ryy
=
16eLL
16f#J
8gJ
4ryy
=||
*-
